icon-themes/sifr_svg/cmd/sc_graphicfilterremovenoise.svg

<svg viewBox="0 0 16 16" xmlns="http://www.w3.org/2000/svg"><path d="m9 1-7 5h-2v4h2l7 5h1v-14zm-1 3.171875v7.65625l-5-3.5722656v-.5117188zm3 5.828125v1l1.5 1.5-1.5 1.5v1h1l1.5-1.5 1.5 1.5h1v-1l-1.5-1.5 1.5-1.5v-1h-1l-1.5 1.5-1.5-1.5z" fill="#555753"/></svg>

<svg xmlns="http://www.w3.org/2000/svg" viewBox="0 0 16 16">
  <path
     style="fill:#555753"
     d="M 9,1 2,6 H 0 v 4 h 2 l 7,5 h 1 V 1 Z M 8,4.171875 v 7.65625 L 3,8.2558594 V 7.7441406 Z M 11,10 v 1 L 12.5,12.5 11,14 v 1 h 1 L 13.5,13.5 15,15 h 1 V 14 L 14.5,12.5 16,11 V 10 H 15 L 13.5,11.5 12,10 Z"
     />
</svg>
